X: 2218
T: SANDY BUCHANAN
Q: "Highland Schottische."
R: Schottishe.
%R: shottish
B: James Kerr "Merry Melodies" v.2 p.24 #218
Z: 2016 John Chambers <jc:trillian.mit.edu>
M: C
L: 1/8
K: Am	% and C
|:\
E<AAG E<GG>A | c>de>d c<AA>c |\
E<AA>G (E<G)g2 | e>cd>e c2c2 ::\
(e<g)g2 (e<a)a2 |
e>dc>e [1 d>B G2 |\
(e<g)g2 (e>a)a2 | e>cd>e c2c2 :|\
[2 d>cA>G | E<AA>G (E<G)g2 | e>cd>e c2[c2E2] |]

%%sep 1 1 500
%%sep 1 1 500

